svgs/light/wave-triangle.svg

<svg xmlns="http://www.w3.org/2000/svg" viewBox="0 0 640 512"><!--! Font Awesome Pro 6.3.0 by @fontawesome - https://fontawesome.com License - https://fontawesome.com/license (Commercial License) Copyright 2023 Fonticons, Inc. --><path d="M617.6 242.4c-9.367-7.158-19.06-1.291-22.4 3.245l-118.4 162.8c-5.934 8.166-19.64 8.18-25.56-.0121L214.4 83.04C205.7 71.12 191.4 64 175.1 64C160.6 64 146.3 71.1 137.6 83L19.18 245.7C13.91 252.1 15.34 263.4 22.37 268.8c9.448 7.24 19.12 1.289 22.44-3.303l118.4-162.7c5.935-8.166 19.64-8.18 25.56 .0121l236.8 325.4C434.7 440.8 448.7 448 464 448c15.24 0 29.24-7.21 38.4-19.78L620.8 265.5C626.1 258.2 624.7 247.9 617.6 242.4z"/></svg>

<svg xmlns="http://www.w3.org/2000/svg" viewBox="0 0 640 512"><!-- Font Awesome Pro 6.0.0-alpha2 by @fontawesome - https://fontawesome.com License - https://fontawesome.com/license (Commercial License) --><path d="M617.63 242.42C608.263 235.262 598.572 241.128 595.23 245.664L476.791 408.435C470.857 416.601 457.151 416.614 451.232 408.423L214.396 83.037C205.74 71.119 191.382 64 175.995 64C160.619 64 146.265 71.103 137.597 83.003L19.183 245.703C13.906 252.999 15.341 263.351 22.369 268.799C31.817 276.039 41.489 270.088 44.811 265.496L163.207 102.784C169.142 94.619 182.847 94.604 188.767 102.797L425.604 428.182C434.749 440.774 448.747 448 464.004 448C479.248 448 493.243 440.79 502.403 428.216L620.815 265.516C626.095 258.22 624.659 247.866 617.63 242.42Z"/></svg>
